X:86
T:A Reel
O:No 86 Wm Clarke MS  Feltwell, Norfolk
N:Bar 4 maybe should be c - see last bar.
N:Rest is given after repeat mark in MS
I:abc2nwc
M:4/4
L:1/8
K:G
GB dg bg af|ge dB eA AB|GB dg bg af|ge d"^*"B BG G "^*"z:|
|:Bd Gd Bd Gd|ce dB cA AB|GB dg bg af|ge dc BG G2:|

